X:9412
T:Le petit bossu
R:Schottiche
C:Trad.
O:France
M:C
L:1/8
Q:1/4=180
K:G
D2E2D2E2|D2GAB2G2|D2E2D2E2|D2BAG4:|
BABcB2A2|AGABA2G2|DDEF GBD2|DDEFG4:|


